src/22/panel/simplescreenrecorder-paused.svg

<svg xmlns="http://www.w3.org/2000/svg" width="22" height="22" version="1">
 <defs>
  <style id="current-color-scheme" type="text/css">
   .ColorScheme-Text { color:#dfdfdf; } .ColorScheme-Highlight { color:#5294e2; }
  </style>
 </defs>
 <path style="fill:currentColor" class="ColorScheme-Text" d="M 3.1816406 5 C 2.5269406 5 2 5.5344188 2 6.1992188 L 2 15.800781 C 2 16.465781 2.5269406 17 3.1816406 17 L 14.818359 17 C 15.473359 17 16 16.465781 16 15.800781 L 16 13 L 21 15 L 21 7 L 16 9 L 16 6.1992188 C 16 5.5344187 15.473359 5 14.818359 5 L 3.1816406 5 z M 5 8 L 8 8 L 8 14 L 5 14 L 5 8 z M 10 8 L 13 8 L 13 14 L 10 14 L 10 8 z"/>
</svg>

<svg xmlns="http://www.w3.org/2000/svg" width="22" height="22" version="1"><defs><style id="current-color-scheme" type="text/css"></style></defs><path d="M3.182 5C2.527 5 2 5.534 2 6.2v9.6c0 .666.527 1.2 1.182 1.2h11.636c.655 0 1.182-.534 1.182-1.2V13l5 2V7l-5 2V6.2c0-.666-.527-1.2-1.182-1.2H3.182zM5 8h3v6H5V8zm5 0h3v6h-3V8z" fill="currentColor" color="#dfdfdf"/></svg>
